X:1
T:Jesus Is Calling Today
T:Jesus Is Calling Today
T:James Holmes Rosecrans
T:Daniel Robertson Lucas, 1886
T:Public Domain Courtesy of the Cyber Hymnal™
C:James Holmes Rosecrans
Z:Public Domain
Z:Courtesy of the Cyber Hymnal™
%%score 1 ( 2 3 )
L:1/8
Q:1/4=90
M:6/8
K:Db
V:1 treble 
V:2 bass 
V:3 bass 
V:1
"^Duet" FED DEF | GGG B3 |"^Semi-Chorus" [EA][EA][FA] [GA]2 [EA] | [FA][FA][EG] [DF]3 | %4
w: 1.~Je- sus is ten- der- ly|call- ing for thee,|Call- ing for thee, yes,|call- ing for thee;|
w: 2.~Je- sus is ten- der- ly|call- ing thee now,|Call- ing thee now, yes,|call- ing thee now;|
w: 3.~Je- sus is ten- der- ly|call- ing, O come!|Call- ing to- day, yes,|call- ing to- day;|
"^Duet" FED DEF | GGG B3 |"^Semi-Chorus" [EA][EA][FA] [GA][FA][EA] | [Fd]3- [Fd]2 z || %8
w: List- en and hear Him say,|“Fol- low thou Me,|Fol- low, yes, fol- low thou|Me.” *|
w: Wait- ing for thee in sub-|mis- sion to bow,|Call- ing, yes, call- ing just|now. *|
w: All who are wea- ry and|long- ing for home,|Je- sus is call- ing to-|day. *|
"^Full Chorus" [FA]4 [GB][DF] | [FA][GB][Gc] [Fd]3 | [Gd]4 [Gc][GB] | [FA][FA][EG] [DF]3 | %12
w: ||||
w: Je- sus is|call- ing to- day,|Je- sus is|call- ing to- day;|
w: ||||
 [FA]4 [GB][DF] | [FA][GB][Gc] [Fd]3 | [Gd][Gc][GB] [FA][Gc][Ge] | [Fd]3- [Fd]2 z |] %16
w: ||||
w: Je- sus is|call- ing to- day,|Call- ing, yes, call- ing to-|day. *|
w: ||||
V:2
 A,G,F, F,G,A, | B,B,B, [G,,G,D]3 | [A,C][A,C][A,D] [A,E]2 [A,C] | [D,D][D,D][D,A,] [D,A,]3 | %4
w: ~ ~ ~ ~ ~ ~|~ ~ ~ ~|~ ~ ~ ~ ~|~ ~ ~ ~|
 A,G,F, F,G,A, | B,B,B, [G,,G,D]3 | [A,C][A,C][A,D] [A,E][A,D][A,C] | [D,D]3- [D,D]2 z || %8
w: ~ ~ ~ ~ ~ ~|~ ~ ~ ~|~ ~ ~ ~ ~ ~|~ *|
 [D,D][D,D][D,D] [D,D][D,D] z | [D,D][D,D][D,A,] [D,A,]3 | [G,B,][G,B,][G,B,] [G,B,][G,B,] z | %11
w: Je- sus is call- ing,|call- ing to- day,|Je- sus is call- ing,|
 [D,D][F,D]A, [D,A,]3 | [D,D][D,D][D,D] [D,D][D,D] z | [D,D][D,D][D,A,] [D,A,]3 | %14
w: call- ing to- day;|Je- sus is call- ing,|call- ing to- day,|
 [G,B,][G,C][G,D] [A,D]A,A, | [D,A,]3- [D,A,]2 z |] %16
w: ||
V:3
 [D,,D,]3 [D,,D,]3 | [G,,G,]3 x3 | x6 | x6 | [D,,E,]3 [D,,D,]3 | [G,,G,]3 x3 | x6 | x6 || x6 | x6 | %10
 x6 | x2 A, x3 | x6 | x6 | x4 A,A, | x6 |] %16

